packages/webapp/public/images/template-logos/amazon.svg

<svg width="62" height="62" viewBox="0 0 62 62" fill="none" xmlns="http://www.w3.org/2000/svg">
<rect width="62" height="62" rx="10" fill="white"/>
<path d="M47.4507 45.2209C29.29 53.8639 18.0193 46.6325 10.8046 42.2404C10.3581 41.9636 9.59931 42.3051 10.2577 43.0613C12.6613 45.9757 20.5383 53.0003 30.8202 53.0003C41.1092 53.0003 47.2302 47.3862 47.9959 46.4068C48.7564 45.4357 48.2192 44.9001 47.4505 45.2209H47.4507ZM52.5511 42.4042C52.0634 41.7691 49.5856 41.6507 48.0262 41.8423C46.4645 42.0283 44.1202 42.9828 44.324 43.5559C44.4286 43.7706 44.6421 43.6743 45.715 43.5778C46.7908 43.4705 49.8046 43.0901 50.4326 43.9111C51.0635 44.7377 49.4714 48.6755 49.1806 49.3105C48.8996 49.9456 49.2879 50.1094 49.8157 49.6864C50.3361 49.2636 51.2784 48.1686 51.9107 46.6191C52.5387 45.0611 52.9218 42.8877 52.5511 42.4042Z" fill="#FF9900"/>
<path fill-rule="evenodd" clip-rule="evenodd" d="M35.2396 27.5847C35.2396 29.8525 35.2969 31.7437 34.1507 33.7576C33.2256 35.3952 31.7601 36.4021 30.1227 36.4021C27.8875 36.4021 26.5858 34.6992 26.5858 32.1858C26.5858 27.2244 31.0313 26.3239 35.2396 26.3239V27.5847ZM41.1097 41.7729C40.7249 42.1167 40.1682 42.1414 39.7343 41.912C37.8022 40.3075 37.4582 39.5625 36.394 38.0314C33.201 41.2899 30.9414 42.2641 26.7988 42.2641C21.9029 42.2641 18.0876 39.243 18.0876 33.1928C18.0876 28.469 20.6504 25.2513 24.2934 23.6796C27.4537 22.2876 31.8665 22.042 35.2396 21.6573V20.9041C35.2396 19.5204 35.346 17.883 34.5356 16.6878C33.8232 15.6152 32.4642 15.1731 31.2688 15.1731C29.0502 15.1731 27.0688 16.311 26.5858 18.6689C26.4875 19.193 26.1028 19.7088 25.5789 19.7333L19.9297 19.1276C19.4549 19.021 18.931 18.6363 19.062 17.9075C20.3637 11.0633 26.5447 9 32.0791 9C34.9119 9 38.6124 9.75328 40.8476 11.8984C43.6804 14.5427 43.4101 18.0713 43.4101 21.911V30.9823C43.4101 33.7086 44.5399 34.9039 45.6042 36.3776C45.9807 36.9016 46.0627 37.5321 45.5878 37.9249C44.4007 38.9155 42.2884 40.7577 41.1259 41.7893L41.1095 41.7729" fill="black"/>
<path d="M47.4507 45.2209C29.29 53.8639 18.0193 46.6325 10.8046 42.2404C10.3581 41.9636 9.59931 42.3051 10.2577 43.0613C12.6613 45.9757 20.5383 53.0003 30.8202 53.0003C41.1092 53.0003 47.2302 47.3862 47.9959 46.4068C48.7564 45.4357 48.2192 44.9001 47.4505 45.2209H47.4507ZM52.5511 42.4042C52.0634 41.7691 49.5856 41.6507 48.0262 41.8423C46.4645 42.0283 44.1202 42.9828 44.324 43.5559C44.4286 43.7706 44.6421 43.6743 45.715 43.5778C46.7908 43.4705 49.8046 43.0901 50.4326 43.9111C51.0635 44.7377 49.4714 48.6755 49.1806 49.3105C48.8996 49.9456 49.2879 50.1094 49.8157 49.6864C50.3361 49.2636 51.2784 48.1686 51.9107 46.6191C52.5387 45.0611 52.9218 42.8877 52.5511 42.4042Z" fill="#FF9900"/>
<path fill-rule="evenodd" clip-rule="evenodd" d="M35.2396 27.5847C35.2396 29.8525 35.2969 31.7437 34.1507 33.7576C33.2256 35.3952 31.7601 36.4021 30.1227 36.4021C27.8875 36.4021 26.5858 34.6992 26.5858 32.1858C26.5858 27.2244 31.0313 26.3239 35.2396 26.3239V27.5847ZM41.1097 41.7729C40.7249 42.1167 40.1682 42.1414 39.7343 41.912C37.8022 40.3075 37.4582 39.5625 36.394 38.0314C33.201 41.2899 30.9414 42.2641 26.7988 42.2641C21.9029 42.2641 18.0876 39.243 18.0876 33.1928C18.0876 28.469 20.6504 25.2513 24.2934 23.6796C27.4537 22.2876 31.8665 22.042 35.2396 21.6573V20.9041C35.2396 19.5204 35.346 17.883 34.5356 16.6878C33.8232 15.6152 32.4642 15.1731 31.2688 15.1731C29.0502 15.1731 27.0688 16.311 26.5858 18.6689C26.4875 19.193 26.1028 19.7088 25.5789 19.7333L19.9297 19.1276C19.4549 19.021 18.931 18.6363 19.062 17.9075C20.3637 11.0633 26.5447 9 32.0791 9C34.9119 9 38.6124 9.75328 40.8476 11.8984C43.6804 14.5427 43.4101 18.0713 43.4101 21.911V30.9823C43.4101 33.7086 44.5399 34.9039 45.6042 36.3776C45.9807 36.9016 46.0627 37.5321 45.5878 37.9249C44.4007 38.9155 42.2884 40.7577 41.1259 41.7893L41.1095 41.7729" fill="black"/>
</svg>

<svg xmlns="http://www.w3.org/2000/svg" xmlns:xlink="http://www.w3.org/1999/xlink" width="62" height="62" fill="none"><rect width="62" height="62" rx="31" fill="#fff"/><use xlink:href="#B" fill="#f90"/><use xlink:href="#C" fill-rule="evenodd" fill="#000"/><use xlink:href="#B" fill="#f90"/><use xlink:href="#C" fill-rule="evenodd" fill="#000"/><defs ><path id="B" d="M47.451 45.221c-18.161 8.643-29.431 1.412-36.646-2.98-.447-.277-1.205.065-.547.821C12.661 45.975 20.538 53 30.82 53c10.289 0 16.41-5.614 17.176-6.593.761-.971.223-1.507-.545-1.186h0zm5.1-2.817c-.488-.635-2.965-.753-4.525-.562-1.562.186-3.906 1.14-3.702 1.714.105.215.318.118 1.391.022 1.076-.107 4.09-.488 4.718.333.631.827-.961 4.764-1.252 5.4-.281.635.107.799.635.376.52-.423 1.463-1.518 2.095-3.067.628-1.558 1.011-3.731.64-4.215z"/><path id="C" d="M35.24 27.585c0 2.268.057 4.159-1.089 6.173-.925 1.638-2.391 2.645-4.028 2.645-2.235 0-3.537-1.703-3.537-4.216 0-4.961 4.446-5.862 8.654-5.862v1.261zm5.87 14.188c-.385.344-.942.368-1.375.139-1.932-1.605-2.276-2.349-3.34-3.881-3.193 3.259-5.453 4.233-9.595 4.233-4.896 0-8.711-3.021-8.711-9.071 0-4.724 2.563-7.941 6.206-9.513 3.16-1.392 7.573-1.638 10.946-2.022v-.753c0-1.384.106-3.021-.704-4.216-.712-1.073-2.071-1.515-3.267-1.515-2.219 0-4.2 1.138-4.683 3.496-.098.524-.483 1.04-1.007 1.064l-5.649-.606c-.475-.107-.999-.491-.868-1.22C20.364 11.063 26.545 9 32.079 9c2.833 0 6.533.753 8.769 2.898 2.833 2.644 2.563 6.173 2.563 10.013v9.071c0 2.726 1.13 3.922 2.194 5.395.377.524.459 1.154-.016 1.547-1.187.991-3.299 2.833-4.462 3.864l-.016-.016"/></defs></svg>
